rospo-icon-theme-classic-common/16x16/status/package-supported.svg

<svg height="16" viewBox="0 0 16 16" width="16" xmlns="http://www.w3.org/2000/svg"><path d="m8 1-2 2h-3v3l-2 2 2 2v3h3l2 2 2-2h3v-3l2-2-2-2v-3h-3z" fill="#f382cf"/></svg>

<svg xmlns="http://www.w3.org/2000/svg" width="16" height="16" version="1.1" viewBox="0 0 16 16">
 <path style="fill:#f382cf" d="M 8 1 L 6 3 L 3 3 L 3 6 L 1 8 L 3 10 L 3 13 L 6 13 L 8 15 L 10 13 L 13 13 L 13 10 L 15 8 L 13 6 L 13 3 L 10 3 L 8 1 z"/>
</svg>
